X: 1
T: Irish Lamentation
R: waltz
M: 3/4
L: 1/8
K: Gmaj
GA | "G"B2 B2 Bc | B3 A G2 | "Am"a2 A2 A2 | "D7"A4 GA |
"G"B2 cB AG | "C"E4 GE | "D7"D2 G2 G2 | "G"G4 :|
Bc | "G"d2 d2 d2 | de dB AB | "C"G2 g2 g2 | "D7"g4 ed |
"G"B2 d2 d2 | de dB AB | "C"G2 g2 g2 | "D7"g4 de |
"F"=f3 e fg | "C"e2 ed eg | "G"d2 ed cB | "D7"A4 GA |
"G"B2 cB AG | "C"E3 GFE | "D7"D2 G2 G2 | "G"G4 :|


Tune 8973	Setting 19803

